X: 26086
T: McDonagh's
R: reel
M: 4/4
K: Eminor
defd AAAd|B/c/d ef gfef|defd AAAB|BAGE EDDz|
defd AAAd|B/c/d ef gfef|defd AAAB|BAGE EDDz||
A/B/d fd Adfd|Acec fcec|d/d/d fd Adfd|efge fddz|
A/B/d fd A/B/d fd|A/B/c ef gzfe|defg aaaf|gfeg fd d2||

